src/assets/icons/statistics.svg

<svg width="20" height="20" viewBox="0 0 20 20" fill="none" xmlns="http://www.w3.org/2000/svg">
<path fill-rule="evenodd" clip-rule="evenodd" d="M13.0052 1.66797C12.6516 1.66797 12.3124 1.80844 12.0624 2.05849C11.8123 2.30854 11.6719 2.64768 11.6719 3.0013V6.66797H8.00521C7.65159 6.66797 7.31245 6.80844 7.0624 7.05849C6.81235 7.30854 6.67187 7.64768 6.67187 8.0013V12.5013H3.00521C2.65159 12.5013 2.31245 12.6418 2.0624 12.8918C1.81235 13.1419 1.67188 13.481 1.67188 13.8346V17.0013C1.67188 17.3549 1.81235 17.6941 2.0624 17.9441C2.31245 18.1942 2.65159 18.3346 3.00521 18.3346H17.0052C17.3588 18.3346 17.698 18.1942 17.948 17.9441C18.1981 17.6941 18.3385 17.3549 18.3385 17.0013V3.0013C18.3385 2.64768 18.1981 2.30854 17.948 2.05849C17.698 1.80844 17.3588 1.66797 17.0052 1.66797H13.0052ZM8.33854 8.33463H11.6719V16.668H8.33854V8.33463ZM16.6719 16.668H13.3385V3.33464H16.6719V16.668ZM6.67187 14.168V16.668H3.33854V14.168H6.67187Z" fill="#4F9B90"/>
</svg>

<svg xmlns="http://www.w3.org/2000/svg" width="20" height="20" fill="none"><path fill="#4F9B90" fill-rule="evenodd" d="M13.005 1.668a1.333 1.333 0 0 0-1.333 1.333v3.667H8.005a1.333 1.333 0 0 0-1.333 1.333v4.5H3.005a1.334 1.334 0 0 0-1.333 1.334V17a1.333 1.333 0 0 0 1.333 1.334h14A1.333 1.333 0 0 0 18.34 17v-14a1.333 1.333 0 0 0-1.334-1.333zM8.34 8.335h3.333v8.333H8.339zm8.333 8.333h-3.334V3.335h3.334zm-10-2.5v2.5H3.339v-2.5z" clip-rule="evenodd"/></svg>
